X: 2171
T: CAPTAIN Mc DUFF
%R: reel
B: James Kerr "Merry Melodies" v.2 p.20 #171
Z: 2016 John Chambers <jc:trillian.mit.edu>
M: C
L: 1/8
K: A
ua |\
ecBc A2(EF) | Acec B/B/B (Ba) |\
ecBc A2(EF) | Afec A/A/A A ::\
ud |\
ceef ecae |
ceef ecBd |\
[1 ceef ecec | ecBc A/A/A A :|\
[2 ceea afec | ecBc A/A/A A |]
